src/view/frontend/web/svg/heroicons/outline/clipboard-copy.svg

<svg  viewBox="0 0 24 24" fill="none" stroke="currentColor" xmlns="http://www.w3.org/2000/svg">
<path d="M8 5H6C4.89543 5 4 5.89543 4 7V19C4 20.1046 4.89543 21 6 21H16C17.1046 21 18 20.1046 18 19V18M8 5C8 6.10457 8.89543 7 10 7H12C13.1046 7 14 6.10457 14 5M8 5C8 3.89543 8.89543 3 10 3H12C13.1046 3 14 3.89543 14 5M14 5H16C17.1046 5 18 5.89543 18 7V10M20 14H10M10 14L13 11M10 14L13 17"  stroke-width="2" stroke-linecap="round" stroke-linejoin="round"/>
</svg>

<svg xmlns="http://www.w3.org/2000/svg" fill="none" viewBox="0 0 24 24" stroke="currentColor">
  <path stroke-linecap="round" stroke-linejoin="round" stroke-width="2" d="M8 5H6a2 2 0 00-2 2v12a2 2 0 002 2h10a2 2 0 002-2v-1M8 5a2 2 0 002 2h2a2 2 0 002-2M8 5a2 2 0 012-2h2a2 2 0 012 2m0 0h2a2 2 0 012 2v3m2 4H10m0 0l3-3m-3 3l3 3"/>
</svg>
